HTML/assets/eye.svg

<?xml version="1.0" encoding="UTF-8"?>
<svg width="24px" height="24px" viewBox="0 0 24 24" version="1.1" xmlns="http://www.w3.org/2000/svg" xmlns:xlink="http://www.w3.org/1999/xlink">
    <!-- Generator: sketchtool 49 (51002) - http://www.bohemiancoding.com/sketch -->
    <title>20AC30FA-A1B0-4EA1-A533-09F1896ED508</title>
    <desc>Created with sketchtool.</desc>
    <defs>
        <path d="M2.57441438,9.70747457 C3.149187,10.5974451 3.82824869,11.4880178 4.6045372,12.3160589 C6.77619226,14.6324909 9.25480244,16 12,16 C14.7451976,16 17.2238077,14.6324909 19.3954628,12.3160589 C20.1717513,11.4880178 20.850813,10.5974451 21.4255856,9.70747457 C21.5887228,9.45487513 21.7334114,9.21763031 21.8592878,9 C21.7334114,8.78236969 21.5887228,8.54512487 21.4255856,8.29252543 C20.850813,7.40255491 20.1717513,6.51198221 19.3954628,5.68394113 C17.2238077,3.36750906 14.7451976,2 12,2 C9.25480244,2 6.77619226,3.36750906 4.6045372,5.68394113 C3.82824869,6.51198221 3.149187,7.40255491 2.57441438,8.29252543 C2.41127724,8.54512487 2.26658862,8.78236969 2.14071218,9 C2.26658862,9.21763031 2.41127724,9.45487513 2.57441438,9.70747457 Z M0.105572809,8.5527864 C0.246140906,8.27165021 0.50996726,7.80262558 0.894335622,7.20747457 C1.5305005,6.22244509 2.28112631,5.23801779 3.1454628,4.31605887 C5.66130774,1.63249094 8.62019756,0 12,0 C15.3798024,0 18.3386923,1.63249094 20.8545372,4.31605887 C21.7188737,5.23801779 22.4694995,6.22244509 23.1056644,7.20747457 C23.4900327,7.80262558 23.7538591,8.27165021 23.8944272,8.5527864 C24.0351909,8.8343139 24.0351909,9.1656861 23.8944272,9.4472136 C23.7538591,9.72834979 23.4900327,10.1973744 23.1056644,10.7925254 C22.4694995,11.7775549 21.7188737,12.7619822 20.8545372,13.6839411 C18.3386923,16.3675091 15.3798024,18 12,18 C8.62019756,18 5.66130774,16.3675091 3.1454628,13.6839411 C2.28112631,12.7619822 1.5305005,11.7775549 0.894335622,10.7925254 C0.50996726,10.1973744 0.246140906,9.72834979 0.105572809,9.4472136 C-0.0351909363,9.1656861 -0.0351909363,8.8343139 0.105572809,8.5527864 Z M12,13 C14.209139,13 16,11.209139 16,9 C16,6.790861 14.209139,5 12,5 C9.790861,5 8,6.790861 8,9 C8,11.209139 9.790861,13 12,13 Z M12,11 C10.8954305,11 10,10.1045695 10,9 C10,7.8954305 10.8954305,7 12,7 C13.1045695,7 14,7.8954305 14,9 C14,10.1045695 13.1045695,11 12,11 Z" id="path-1"></path>
    </defs>
    <g id="Symbols" stroke="none" stroke-width="1" fill="none" fill-rule="evenodd">
        <g id="Icons-/-24px-/-eye">
            <g id="↳-🎨Color" transform="translate(0.000000, 3.000000)">
                <mask id="mask-2" fill="white">
                    <use xlink:href="#path-1"></use>
                </mask>
                <use id="Mask" fill="#000000" fill-rule="nonzero" xlink:href="#path-1"></use>
                <g id="UI/Color/Flat/Black" mask="url(#mask-2)" fill="#000000">
                    <g transform="translate(0.000000, -3.000000)" id="Base">
                        <rect x="0" y="0" width="24" height="24"></rect>
                    </g>
                </g>
            </g>
        </g>
    </g>
</svg>

<svg xmlns="http://www.w3.org/2000/svg" xmlns:xlink="http://www.w3.org/1999/xlink" width="24" height="24" viewBox="0 0 24 24">
    <defs>
        <path id="a" d="M2.574 9.707c.575.89 1.254 1.781 2.03 2.61C6.777 14.631 9.255 16 12 16c2.745 0 5.224-1.368 7.395-3.684A18.513 18.513 0 0 0 21.86 9a18.513 18.513 0 0 0-2.464-3.316C17.224 3.368 14.745 2 12 2 9.255 2 6.776 3.368 4.605 5.684A18.513 18.513 0 0 0 2.14 9c.126.218.27.455.433.707zM.106 8.553c.14-.281.404-.75.788-1.346a20.492 20.492 0 0 1 2.251-2.89C5.661 1.631 8.62 0 12 0c3.38 0 6.339 1.632 8.855 4.316a20.492 20.492 0 0 1 2.25 2.891c.385.596.649 1.065.79 1.346a1 1 0 0 1 0 .894c-.141.281-.405.75-.79 1.346a20.492 20.492 0 0 1-2.25 2.89C18.339 16.369 15.38 18 12 18c-3.38 0-6.339-1.632-8.855-4.316a20.492 20.492 0 0 1-2.25-2.891 15.188 15.188 0 0 1-.79-1.346 1 1 0 0 1 0-.894zM12 13a4 4 0 1 0 0-8 4 4 0 0 0 0 8zm0-2a2 2 0 1 1 0-4 2 2 0 0 1 0 4z"/>
    </defs>
    <g fill="none" fill-rule="evenodd" transform="translate(0 3)">
        <mask id="b" fill="#fff">
            <use xlink:href="#a"/>
        </mask>
        <use fill="#000" fill-rule="nonzero" xlink:href="#a"/>
        <g fill="#000" mask="url(#b)">
            <path d="M0-3h24v24H0z"/>
        </g>
    </g>
</svg>
